public/assets/images/icons/yellow/folder-topic-full.svg

<svg xmlns="http://www.w3.org/2000/svg" viewBox="0 0 54 54"><path d="M26.37 23.15V22h-4.85v1.12h-4.74V40h14.44V23.15zm2.93 15.09H18.7V25h2.82v.42h4.85V25h2.93z" fill="#ffad00"/><path d="M20.39 29.83h7.22v2.27h-7.22zm0 3.38h7.22v2.36h-7.22z" fill="#ffad00"/><path d="M3 45.94h42v-30H3zm3-27h36v24H6z" fill="#ffad00"/><path d="M30 10v-.06a3 3 0 0 0-3-3h-9a3 3 0 0 0-3 3V10H9v2.91h39V40h3V10z" fill="#ffad00"/></svg>

<svg xmlns="http://www.w3.org/2000/svg" viewBox="0 0 54 54"><defs><style>.a{fill:#ffad00;}</style></defs><path class="a" d="M26.37,23.15V22H21.52v1.12H16.78V40H31.22V23.15ZM29.3,38.24H18.7V25h2.82v.42h4.85V25H29.3Z"/><rect class="a" x="20.39" y="29.83" width="7.22" height="2.27"/><rect class="a" x="20.39" y="33.21" width="7.22" height="2.36"/><path class="a" d="M3,45.94H45v-30H3Zm3-27H42v24H6Z"/><path class="a" d="M30,10V9.94a3,3,0,0,0-3-3H18a3,3,0,0,0-3,3V10H9v2.91H48V40h3V10Z"/></svg>
